X: 6987
T: Chicago, The
R: jig
M: 6/8
K: Dmixolydian
|:G|F2D DED|F2D DED|F2D DED|C2 A, A,2G|
F2D DED|F2D DED|B3 cAF|AGF G2:|
|:A|B3 cde|dcB ABc|B2G GBd|A3 AGF|
~B2B cde|dcB ABc|~B2B cAF|AGF G2:|

